_includes/icons/color-statistics.svg

<svg fill="#666" height="50" viewBox="0 0 48 48" width="50" xmlns="http://www.w3.org/2000/svg"><g fill="#37474f"><path d="m23 5h2v36h-2z"/><path d="m25.816406 32.777344 1.414063 1.414062-10.042969 10.039063-1.414062-1.414063z"/><path d="m32.253906 42.824219-1.414062 1.414062-10.042969-10.042968 1.414063-1.414063z"/></g><path d="m4 8h40v28h-40z" fill="#cfd8dc"/><g fill="#607d8b"><path d="m3 7h42v4h-42z"/><path d="m3 35h42v2h-42z"/><path d="m33 43.5c0 .828125-.671875 1.5-1.5 1.5s-1.5-.671875-1.5-1.5.671875-1.5 1.5-1.5 1.5.671875 1.5 1.5z"/><path d="m18 43.5c0 .828125-.671875 1.5-1.5 1.5s-1.5-.671875-1.5-1.5.671875-1.5 1.5-1.5 1.5.671875 1.5 1.5z"/></g><path d="m31.898438 18.898438-5.898438 6-6-6-8.101562 8 2.203125 2.203125 5.898437-6 6 6 8.101563-8z" fill="#c51162"/><path d="m36 24-7-7h7z" fill="#c51162"/></svg>

<svg xmlns="http://www.w3.org/2000/svg" viewBox="0 0 48 48" width="50" height="50" fill="#666"><path d="M 23 5 L 25 5 L 25 41 L 23 41 Z" fill="#37474f"/><path d="M 25.816406 32.777344 L 27.230469 34.191406 L 17.1875 44.230469 L 15.773438 42.816406 Z" fill="#37474f"/><path d="M 32.253906 42.824219 L 30.839844 44.238281 L 20.796875 34.195313 L 22.210938 32.78125 Z" fill="#37474f"/><path d="M 4 8 L 44 8 L 44 36 L 4 36 Z" fill="#cfd8dc"/><path d="M 3 7 L 45 7 L 45 11 L 3 11 Z" fill="#607d8b"/><path d="M 3 35 L 45 35 L 45 37 L 3 37 Z" fill="#607d8b"/><path d="M 33 43.5 C 33 44.328125 32.328125 45 31.5 45 C 30.671875 45 30 44.328125 30 43.5 C 30 42.671875 30.671875 42 31.5 42 C 32.328125 42 33 42.671875 33 43.5 Z" fill="#607d8b"/><path d="M 18 43.5 C 18 44.328125 17.328125 45 16.5 45 C 15.671875 45 15 44.328125 15 43.5 C 15 42.671875 15.671875 42 16.5 42 C 17.328125 42 18 42.671875 18 43.5 Z" fill="#607d8b"/><path d="M 31.898438 18.898438 L 26 24.898438 L 20 18.898438 L 11.898438 26.898438 L 14.101563 29.101563 L 20 23.101563 L 26 29.101563 L 34.101563 21.101563 Z" fill="#c51162"/><path d="M 36 24 L 29 17 L 36 17 Z" fill="#c51162"/></svg>
